fs/board_heart_16_regular.svg

<svg viewBox="0 0 16 16" fill="none" xmlns="http://www.w3.org/2000/svg" height="1em" width="1em">
  <path d="M2 4.5C2 3.11929 3.11929 2 4.5 2H11.5C12.8807 2 14 3.11929 14 4.5V6.36243C13.6811 6.20587 13.3438 6.10003 13 6.04491V4.5C13 3.67157 12.3284 3 11.5 3H8.5V6.00058C8.16231 6.00665 7.82532 6.06069 7.5 6.16269V6H3V11.5C3 12.3284 3.67157 13 4.5 13H6.91978L7.91227 14H4.5C3.11929 14 2 12.8807 2 11.5V4.5ZM4.5 3C3.67157 3 3 3.67157 3 4.5V5H7.5V3H4.5ZM13 7.06297C13.3558 7.14346 13.6979 7.30114 14 7.536C14.0865 7.60324 14.1697 7.67681 14.249 7.75671C15.2503 8.76565 15.2503 10.4015 14.249 11.4104L10.818 14.8673C10.6424 15.0442 10.3576 15.0442 10.1819 14.8673L6.75103 11.4104C5.74966 10.4015 5.74966 8.76565 6.75103 7.75671C6.97434 7.5317 7.2286 7.35687 7.5 7.23223C7.81726 7.08652 8.15794 7.00938 8.5 7.0008C9.17745 6.98382 9.8603 7.23579 10.3773 7.75671L10.5 7.88033L10.6227 7.75671C11.2678 7.10671 12.1712 6.87547 13 7.06297Z" fill="#212121"/>
</svg>

<svg viewBox="0 0 16 16" fill="none" xmlns="http://www.w3.org/2000/svg" height="1em" width="1em">
  <path d="M2 4.5A2.5 2.5 0 0 1 4.5 2h7A2.5 2.5 0 0 1 14 4.5v1.862a3.54 3.54 0 0 0-1-.317V4.5A1.5 1.5 0 0 0 11.5 3h-3v3c-.338.007-.675.06-1 .163V6H3v5.5A1.5 1.5 0 0 0 4.5 13h2.42l.992 1H4.5A2.5 2.5 0 0 1 2 11.5v-7ZM4.5 3A1.5 1.5 0 0 0 3 4.5V5h4.5V3h-3ZM13 7.063a2.54 2.54 0 0 1 1.249.694 2.598 2.598 0 0 1 0 3.653l-3.431 3.457a.448.448 0 0 1-.636 0L6.75 11.41a2.597 2.597 0 0 1 0-3.653A2.558 2.558 0 0 1 8.5 7a2.547 2.547 0 0 1 1.877.756l.123.123.123-.123A2.55 2.55 0 0 1 13 7.063Z" fill="#212121"/>
</svg>
